X:211
M:C|
L:1/8
K:G
f|gage abaf|gage beef|gage abaf|gdec BGGf|gage abaf|
gage beef|gage abaf|gdec BGG||

